X:1
T: Kenmure's On and Awa'
C: attrib. to Johnson's Musical Museum 1792
N: arranged by Terry Traub, 8-21-2004
B: RSCDS 4-4
M: 6/8
L: 1/8
R: Jig
%
K: G
|: BA |\
"G"G>Bd gdB | "G"d>ed "D"dBA | "G"G>Bd gdB | "A"A>BA "D"ABA |\
"G"G>Bd gdB | "G"def "C"gfe | "G"dcB "D7"cBA | "G"G>AG G2 :| 
|: d |\
"G"g2 d "C"edB | "G"ded "D"def | "G"g2 d edB | "Am"ABA "D"A2 d |\
"G"g2 d edB | "D"def "Em"gfe | "C"dcB "D7"cBA | "C"G>AG "G"G2 :| 
